packages/docs/public/assets/brisa.svg

<svg version="1.1" xmlns="http://www.w3.org/2000/svg" xmlns:xlink="http://www.w3.org/1999/xlink" class="thumbnail-icon" viewBox="0.000014662742614746094 0.8626708984375 199.99998474121094 198.27467346191406"><g data-paper-data="{&quot;fillRule&quot;:&quot;evenodd&quot;,&quot;isIcon&quot;:&quot;true&quot;,&quot;iconType&quot;:&quot;icon&quot;,&quot;rawIconId&quot;:&quot;1593277&quot;,&quot;selectedEffects&quot;:{&quot;container&quot;:&quot;&quot;,&quot;transformation&quot;:&quot;&quot;,&quot;pattern&quot;:&quot;&quot;},&quot;isDetailed&quot;:false,&quot;iconStyle&quot;:&quot;standalone&quot;,&quot;bounds&quot;:{&quot;x&quot;:199.9973019283502,&quot;y&quot;:115,&quot;width&quot;:150.00539614329958,&quot;height&quot;:148.7113522739608}}"><path d="M124.61483,158.94174c69.71155,-24.67981 66.30084,-116.0489 16.15236,-158.07907c43.55063,19.48671 65.9884,72.08974 57.43569,118.04219c-6.69091,35.94877 -33.64512,65.61679 -68.51319,75.61936c-18.34987,5.26387 -37.99493,6.29449 -56.6045,1.67699c-36.64921,-9.09361 -65.432,-40.24673 -71.78202,-77.42355c-5.08653,-29.7797 4.77181,-60.43424 28.61895,-79.78126c24.88567,-20.18995 62.18502,-24.94084 89.40204,-6.47929c26.81815,18.19077 36.45156,56.93445 15.90728,83.59372c-10.48298,13.60341 -27.81797,21.52171 -45.04061,18.90118c-18.00729,-2.73996 -32.02086,-18.97387 -29.58515,-37.51829c3.04952,24.06911 31.52871,33.18067 48.63701,16.38924c15.78164,-15.48936 7.26882,-39.54562 -8.72555,-51.27992c-13.33329,-9.78209 -32.12833,-7.33485 -45.25666,1.61694c-16.20022,11.04604 -22.52108,30.49721 -18.97121,49.35363c7.77338,41.29285 51.33664,58.46298 88.32555,45.36812z" fill-rule="evenodd"></path></g></svg>

<?xml version="1.0" encoding="UTF-8" standalone="no"?>
<!DOCTYPE svg PUBLIC "-//W3C//DTD SVG 1.1//EN" "http://www.w3.org/Graphics/SVG/1.1/DTD/svg11.dtd">
<svg width="100%" height="100%" viewBox="0 0 200 199" version="1.1" xmlns="http://www.w3.org/2000/svg" xmlns:xlink="http://www.w3.org/1999/xlink" xml:space="preserve" xmlns:serif="http://www.serif.com/" style="fill-rule:evenodd;clip-rule:evenodd;stroke-linejoin:round;stroke-miterlimit:2;">
    <g transform="matrix(1,0,0,1,-1.46627e-05,-0.862671)">
        <path d="M124.615,158.942C194.326,134.262 190.916,42.893 140.767,0.863C184.318,20.349 206.756,72.952 198.203,118.905C191.512,154.854 164.558,184.522 129.69,194.524C111.34,199.788 91.695,200.819 73.085,196.201C36.436,187.108 7.653,155.954 1.303,118.778C-3.783,88.998 6.075,58.343 29.922,38.996C54.808,18.806 92.107,14.056 119.324,32.517C146.142,50.708 155.776,89.452 135.231,116.111C124.748,129.714 107.413,137.633 90.191,135.012C72.184,132.272 58.17,116.038 60.606,97.494C63.655,121.563 92.134,130.674 109.243,113.883C125.024,98.394 116.512,74.337 100.517,62.603C87.184,52.821 68.389,55.268 55.26,64.22C39.06,75.266 32.739,94.717 36.289,113.574C44.063,154.866 87.626,172.037 124.615,158.942L124.615,158.942Z" style="fill:url(#_Radial1);"/>
    </g>
    <defs>
        <radialGradient id="_Radial1" cx="0" cy="0" r="1" gradientUnits="userSpaceOnUse" gradientTransform="matrix(52.186,-99.1373,99.1373,52.186,88.8208,100)"><stop offset="0" style="stop-color:rgb(44,240,204);stop-opacity:1"/><stop offset="0.53" style="stop-color:rgb(44,230,209);stop-opacity:1"/><stop offset="1" style="stop-color:rgb(44,195,228);stop-opacity:1"/></radialGradient>
    </defs>
</svg>
